X: 10426
T: Doncaster Races
R: jig
M: 6/8
K: Gmajor
|:d2 B dcA|.G2 G GFG|AFD DEF|GBd gfe|
d2 B dcA|.G2 G GFG|AFD DEF|1 GDB G2 B:|2 GDB G3||
|:Adf fef|gdB dBG|Adf fef|gdB GBd|
ece gfe|dBd gdB|dcA cBG|1 B3 A3:|2 B3 A2 c||

